src/pos-icons/volume-variant-off.svg

<svg height="24" viewBox="0 0 24 24" width="24" xmlns="http://www.w3.org/2000/svg"><path d="m5.64 3.64 15.72 15.72-1.41 1.42-3.95-3.95v3.17l-5-5h-4v-6h1.17l-3.95-3.95zm10.36.36v7.17l-3.59-3.59z"/></svg>

<?xml version="1.0" encoding="UTF-8"?><!DOCTYPE svg PUBLIC "-//W3C//DTD SVG 1.1//EN" "http://www.w3.org/Graphics/SVG/1.1/DTD/svg11.dtd"><svg xmlns="http://www.w3.org/2000/svg" xmlns:xlink="http://www.w3.org/1999/xlink" version="1.1" id="mdi-volume-variant-off" width="24" height="24" viewBox="0 0 24 24"><path d="M5.64,3.64L21.36,19.36L19.95,20.78L16,16.83V20L11,15H7V9H8.17L4.22,5.05L5.64,3.64M16,4V11.17L12.41,7.58L16,4Z" /></svg>
